!!!!SEGMENT: mpm333-OrientalSketches_M.krn
!!!COM: Otto Langey
!!!OTL1: Suite of Three Oriental Sketches
!!!OTL2: No.2. In a Chinese Tea-Room
!!!OPR:Motion Picture Moods for Pianists and Organists 
!!!YOY:1924
!!!ONB: National
**kern	**dynam
*>[A,B,C,C1,C2,D]	*>[A,B,C,C1,C2,D]
*clefG2	*
*k[]	*
*C:	*
*M3/4	*
=1	=1
*>A	*>A
!LO:TX:a:B:t=Andante con grazia	!
8ee'L	p
8dd'J	.
16ee'LL	.
16ee'J	.
8gg'J	.
8ee'L	.
8dd'J	.
=2	=2
16ee'LL	.
16ee'J	.
8gg'J	.
8ee'L	.
8dd'J	.
16ee'LL	.
16ee'J	.
8gg'J	.
=3	=3
16ee'LL	.
16ee'	.
16ee'	.
16ee'JJ	.
8dd'L	.
8cc'J	.
4a~	.
=4	=4
16e'LL	pp
16e'	.
16e'	.
16e'JJ	.
8d'L	.
8c'J	.
4A~	.
=5	=5
8ee'L	p
8dd'J	.
16ee'LL	.
16ee'J	.
8gg'J	.
8ee'L	.
8dd'J	.
=6	=6
16ee'LL	.
16ee'J	.
8gg'J	.
8aa'L	.
8gg'J	.
16aa'LL	.
16aa'J	.
8ccc'J	.
=7	=7
16aa'LL	.
16aa'	.
16aa'	.
16aa'JJ	.
8gg'L	.
8ee'J	.
4dd~	.
=8	=8
8r	pp
8f'	.
8f'L	.
8g'J	.
8r	.
8g'	.
=9	=9
8gg'L	p
8ee'J	.
16dd'LL	.
16dd'J	.
8ee'J	.
!LO:TX:b:i:t=cresc.	!
8gg'L	.
8ee'J	.
=10	=10
16dd'LL	.
16dd'J	.
8ee'J	.
8gg'L	.
8ee'J	.
8g'^L	.
8e'^J	.
=11	=11
8gg'L	.
8ee'J	.
16dd'LL	.
16dd'J	.
8ee'J	.
8gg'L	.
8ee'J	.
=12	=12
16dd'LL	<
16dd'J	.
8ee'J	.
8gg'L	.
8ee'J	.
8gg'L	.
8aa'J	[
=13	=13
4bb^^	f
!LO:TX:b:i:t=pesante	!
4aa^^	.
4gg^^	.
=14	=14
4ff#X^^	>
(8eeL	.
8ff#J)	.
4dd	]]
=15	=15
!LO:TX:a:i:t=a tempo	!
8b'L	p
8a'J	.
16b'LL	.
!LO:TX:b:i:t=cresc.	!
16b'J	.
8a'J	.
8b'L	.
8a'J	.
=16	=16
8b'L	.
8a'J	.
16b'LL	<
16b'J	.
8a'J	.
8b'L	.
8a'J	[[
=17	=17
8dd'L	fp
8ee'J	.
16dd'LL	.
16dd'J	.
8b'J	.
8a'L	.
8g'J	.
=18	=18
16e'LL	>
16e'J	.
8d'J	.
8B'L	.
8A'J	.
4G~	]]
*>B	*>B
=19:|	=19:|
4ff^	f
(16ddLL	p
16ccJ	.
8bJ)	.
8cc'L	.
8a'J	.
=20	=20
8b'L	.
16a'L	.
16a'JJ	.
8g'L	.
8f'J	.
16e'LL	.
16a'	.
16cc'	.
16ee'JJ	.
=21	=21
4ff^	f
(16ddLL	p
16ccJ	.
8bJ)	.
8cc'L	.
8ee'J	.
=22	=22
8dd'L	.
16cc'L	.
16cc'JJ	.
8b'L	.
8a'J	.
16g#X'LL	.
16ee'	.
16ff#X'	.
16gg#X'JJ	.
=23	=23
16aaKL	p
8aa~	.
!LO:TX:b:i:t=languido	!
(16aaJk	.
8ggL)	.
8ff'J	.
4ee~	.
=24	=24
16cccKL	.
8ccc~	<
(16cccJk	.
8bbL)	.
8aa'J	.
4gg~	[[
=25	=25
16eeeKL	>
8eee~	.
(16eeeJk	.
8dddL)	.
8cccJ	.
4bb~	]]
=26	=26
16aaKL	.
8aa~	.
(16aaJk	.
8ggL)	.
8aaJ	.
4bb~	.
=27	=27
!LO:TX:a:i:t=più mosso	!
(16ddLL	mf
16ee	.
16gg	.
16eeJJ	.
16ddLL	.
16b	.
16a	.
16bJJ	.
16aLL	.
16g	.
16a	.
16bJJ	.
=28	=28
16aLL	.
16g	.
16e	.
16gJJ	.
16eLL	.
16d	.
16B	.
16dJJ	.
16eLL	.
16d	.
16e	.
16gJJ)	.
=29	=29
(16b-XLL	f
16cc	.
16ee-X	.
16ccJJ	.
16b-LL	.
16g	.
16f	.
16gJJ	.
16fLL	.
16e-X	.
16f	.
16gJJ	.
=30	=30
16fLL	.
16e-X	.
16c	.
16e-JJ	.
16cLL	.
16B-X	.
16c	.
16e-JJ	.
16fLL	.
16e-	.
16f	.
16gJJ)	.
=31	=31
!LO:TX:a:B:t=Tempo primo	!
4ff^	f
(16ddLL	p
16ccJ	<
8bJ)	.
8cc'L	.
8dd'J	[[
=32	=32
4ff^	f
(16ddLL	p
16ccJ	<
8bJ)	.
8cc'L	.
8dd'J	[[
=33	=33
16ffLL	f
(16ggJ	.
[8ffTJ)	.
2ff]	.
=34	=34
!LO:TX:b:i:t=dim.	!
2.ff	>
(16qqee/LL	]
!LO:TX:a:i:t=poco rit.	!
16qqff/JJ)	]]
=35	=35
!LO:TX:a:i:t=a tempo	!
8ee'L	p
8dd'J	.
16ee'LL	.
16ee'J	.
8gg'J	.
8ee'L	.
8dd'J	.
=36	=36
16ee'LL	.
16ee'J	.
8gg'J	.
8ee'L	.
8dd'J	.
16ee'LL	.
16ee'J	.
8gg'J	.
=37	=37
16ee'LL	.
16ee'	.
16ee'	.
16ee'JJ	.
8dd'L	.
8cc'J	.
4a~	.
=38	=38
16e'LL	pp
16e'	.
16e'	.
16e'JJ	.
8d'L	.
8c'J	.
4A~	.
=39	=39
8ee'L	p
8dd'J	.
16ee'LL	.
16ee'J	.
8gg'J	.
8ee'L	.
8dd'J	.
=40	=40
16ee'LL	.
16ee'J	.
8gg'J	.
8aa'L	.
8gg'J	.
16aa'LL	.
16aa'J	.
8ccc'J	.
=41	=41
16aa'LL	.
16aa'	.
16aa'	.
16aa'JJ	.
8gg'L	.
8ee'J	.
4dd~	.
=42	=42
8r	pp
8f'	.
8f'L	.
8g'J	.
8r	.
8g	.
=43	=43
8gg'L	p
8ee'J	.
16dd'LL	.
16dd'J	.
8ee'J	.
!LO:TX:b:i:t=cresc.	!
8gg'L	.
8ee'J	.
=44	=44
16ddLL	.
16ddJ	.
8eeJ	.
8ggL	.
8eeJ	.
8g'^L	.
8e'^J	.
=45	=45
8gg'L	.
8ee'J	.
16dd'LL	.
16dd'J	.
8ee'J	.
8gg'L	.
8ee'J	.
=46	=46
16dd'LL	<
16dd'J	.
8ee'J	.
8gg'L	.
8ee'J	.
8gg~L	.
8gg~J	[[
=47	=47
4eee^^	f
!LO:TX:b:i:t=pesante	!
4ddd^^	.
4ccc^^	.
=48	=48
4bb^^	.
(8aaL	>
8bbJ)	.
4gg	]]
=49	=49
!LO:TX:a:i:t=a tempo	!
8ee'L	p
8dd'J	.
!LO:TX:b:i:t=cresc.	!
16ee'LL	.
16ee'J	.
8dd'J	.
8ee'L	.
8dd'J	.
=50	=50
8ee'L	.
8dd'J	.
16ee'LL	.
16ee'J	.
8dd'J	.
8ee'L	.
8dd'J	.
=51	=51
8gg'L	f
8aa'J	.
16gg'LL	.
16gg'J	.
!LO:TX:b:i:t=dim.	!
8ee'J	.
8dd'L	.
8cc'J	.
=52	=52
16a'LL	>
16a'J	.
8g'J	.
8e'L	.
8d'J	]
4c~;	p
=53||	=53||
*>C	*>C
*M2/4	*
!LO:TX:a:B:t=Allegro	!
2r	.
=54	=54
2r	.
=55	=55
2r	.
=56	=56
2r	.
=57	=57
(4.aa^	f
24ffLL	.
24ee	.
24ddJJ	.
=58	=58
8cc'L)	.
8cc'J	.
8b'L	.
8b'J	.
=59	=59
8a'L	.
8a'J	.
8g'L	.
8g'J	.
=60	=60
2e	.
=61	=61
(4.aa^	.
24ffLL	.
24ee	.
24ddJJ	.
=62	=62
8cc'L)	.
8cc'J	.
8b'L	.
8b'J	.
=63	=63
[2a	.
=64	=64
4.a]	.
8r	.
=65	=65
(4.gg^	.
24ffLL	.
24ee-X	.
24ddJJ	.
=66	=66
8cc'L)	.
8cc'J	.
8b-X'L	.
8b-'J	.
=67	=67
8g'L	.
8g'J	.
8f'L	.
8f'J	.
=68	=68
2g	.
=69	=69
(4.gg^	.
24ffLL	.
24ee-X	.
24ddJJ	.
=70	=70
8ccL)	.
(24ddL	.
24ee-X	.
24ffJJ	.
8ggL)	.
(24ffL	.
24ee-	.
24ddJJ	.
=71	=71
[2cc)	.
=72	=72
4.cc]	.
8r	.
=73!|:	=73!|:
(8ggL	f
8aaJ	.
8cccL	.
8aaJ	.
=74	=74
8ggL	.
8eeJ	.
8ddL	.
8ccJ)	.
=75	=75
[2ee	.
=76	=76
2ee]	.
=77	=77
(8ggL	.
8aaJ	.
8cccL	.
8aaJ	.
=78	=78
8ggL	.
8eeJ	.
8ddL	.
8ccJ)	.
=79	=79
!LO:TX:b:i:t=espress.	!
[2dd	.
=80	=80
2dd]	.
=81	=81
(8ggL	.
8aaJ	.
8ggL	.
8eeJ	.
=82	=82
8ddL	.
8ccJ	.
8ddL	.
8eeJ)	.
=83	=83
(8ggL	.
8aaJ	.
8ggL	.
8eeJ	.
=84	=84
8ddL	.
8ccJ	.
8ddL	.
8eeJ)	.
=85	=85
(8ggL	.
8aaJ	.
8cccL	<
8aaJ	.
=86	=86
8cccL	.
8aaJ	.
8cccL	.
8dddJ)	[[
*>C1	*>C1
=87	=87
[2ccc	>
=88	=88
2ccc]	]]
*>C2	*>C2
=89	=89
[2ccc	.
=90	=90
4ccc]	.
4r	.
*>D	*>D
=91	=91
2r	.
=92	=92
2r	.
=93	=93
*M3/4	*
!LO:TX:a:B:t=Tempo primo	!
8g'^L	sfz
8g'J	.
16g'LL	.
16g'J	.
8g'J	.
8g'L	.
8g'J	.
=94	=94
8g'L	mp
8G'J	>
16G'LL	.
16G'J	.
8G'J	.
8G'L	.
8G'J	]]
=95	=95
8ee'L	p
8dd'J	.
16ee'LL	.
16ee'J	.
8gg'J	.
8ee'L	.
8dd'J	.
=96	=96
16ee'LL	.
16ee'J	.
8gg'J	.
8ee'L	.
8dd'J	.
16ee'LL	.
16ee'J	.
8gg'J	.
=97	=97
16ee'LL	.
16ee'	.
16ee'	.
16ee'JJ	.
8dd'L	.
8cc'J	.
4a~	.
=98	=98
16e'LL	pp
16e'	.
16e'	.
16e'JJ	.
8d'L	.
8c'J	.
4A~	.
=99	=99
8ee'L	p
8dd'J	.
16ee'LL	.
16ee'J	.
8gg'J	.
8ee'L	.
8dd'J	.
=100	=100
16ee'LL	.
16ee'J	.
8gg'J	.
8aa'L	.
8gg'J	.
16aa'LL	.
16aa'J	.
8ccc'J	.
=101	=101
16aa'LL	.
16aa'	.
16aa'	.
16aa'JJ	.
8gg'L	.
8ee'J	.
4dd~	.
=102	=102
8r	pp
8f'	.
8f'L	.
8g'J	.
8r	.
8g'	.
=103	=103
8gg'L	p
8ee'J	.
16dd'LL	.
16dd'J	.
8ee'J	.
!LO:TX:b:i:t=cresc.	!
8gg'L	.
8ee'J	.
=104	=104
16dd'LL	.
16dd'J	.
8ee'J	.
8gg'L	.
8ee'J	.
8g'^L	.
8e'^J	.
=105	=105
8gg'L	.
8ee-X'J	.
16dd'LL	.
16dd'J	.
8ee-'J	.
8gg'L	.
8ee-'J	.
=106	=106
16dd'LL	.
16dd'J	<
8ee-X'J	.
8gg'L	.
8ee-'J	.
8gg~L	.
8gg~J	[
=107	=107
4eee^^	f
!LO:TX:b:i:t=pesante	!
4ddd^^	.
4ccc^^	.
=108	=108
4bb^^	>
(8aaL	.
8bbJ)	.
4gg~	]]
=109	=109
!LO:TX:b:i:t=dolce	!
(4ccc	p
4bb-X	.
4aa-X	.
=110	=110
4gg)	.
(8ffL	.
8ggJ	.
4ee-X)	.
=111	=111
4r	.
8ee-X'L	.
8dd'J	.
16ee-'LL	.
16ee-'J	.
8dd'J	.
=112	=112
!LO:TX:a:i:t=poco accel.	!
4r	.
8ee-X'L	<
8dd'J	.
16ee-'LL	.
16ee-'J	.
8dd'J	[[
=113	=113
(16ddLL	mf
16ee	.
16gg	.
16eeJJ	.
16ddLL	.
16b	.
16a	.
16bJJ	.
16aLL	.
16f	.
16d	.
16eJJ	.
=114	=114
16dLL	>
16B	.
16G	.
16AJJ	.
!LO:TX:a:i:t=poco rall.	!
16BLL	.
16d	.
16f	.
16aJJ	.
(8b'L)	.
8dd'J)	]
=115	=115
!LO:TX:a:i:t=a tempo	!
8ee'L	p
8dd'J	.
16ee'LL	.
16ee'J	.
8gg'J	.
8ee'L	.
8dd'J	.
=116	=116
16ee'LL	.
16ee'J	<
8gg'J	.
8ee'L	.
8dd'J	.
16ee'LL	.
16ee'J	.
8dd'J	[[
=117	=117
8ee'L	>
8dd'J	.
16ee'LL	.
16ee'J	.
!LO:TX:a:i:t=poco rall.	!
8dd'J	.
8ee'L	.
8dd'J	]
=118	=118
!LO:TX:a:i:t=a tempo	!
16r	.
(16aLL	.
16g	.
16eJJ	.
16gLL	.
16a	.
16cc	.
16ddJJ	.
16eeLL	.
16gg	.
16aa	.
16cccJJ	.
=119	=119
[2.eee)	.
=120	=120
!LO:TX:a:i:t=rall.	!
2.eee]	>] p]
==	==
*-	*-
!!!ENC: Yukiko Yoden
!!!END: 2022/03/21